X: 81
T:Greetwell
% Nottingham Music Database
S:Pauline Wilson, via PR
M:4/4
L:1/4
K:D
"D"dc df-|fe df|"F#"e2 c2-|c4|"G"B^A Bd-|dc Bd|"D"A4-|AF BA|"Em"GF GB-|
"A7"BA GE|"D"F2 A2|"Bm"Bc2d|"E7"fe dB-|Bc dB|"A7"cd ^de-|ec BA||
"D"dc df-|fe df|"F#"e2 c2-|c4|"G"B^A Bc|dc de|"F#"f4-|fB ^AB|
"B7"gf ^dB|gf ^dB|"E7"fe dB-|B^A B=c|"A7"cB Ag-|gf e2|"D"d4-|d4||<end>
<start>
